X: 28112
T: Mr. Webster
R: strathspey
M: 4/4
K: Bdorian
|:F<B B>c d/c/B/A/ B2|F<BB>c d>cB>A|F<BB>c d/c/B/A/ B2|A>FD>d c>dB>A:|
A>Bd>e f/e/d/c/ d2|A>Bd>e f<d e<c|A>Bd>e f/e/d/c/ d2|A>FD>d c>dB>A|
A>Bd>e f/e/d/c/ d2|A>Bd>e f<d e<c|f<d e<c d<B c<A|A>FD>d c>dB>A||

